; generated by PrusaSlicer 2.3.3+win64 on 2021-08-21 at 23:01:24 UTC

; 

; external perimeters extrusion width = 0.45mm
; perimeters extrusion width = 0.45mm
; infill extrusion width = 0.45mm
; solid infill extrusion width = 0.45mm
; top infill extrusion width = 0.40mm
; support material extrusion width = 0.35mm
; first layer extrusion width = 0.42mm

M73 P0 R179
M73 Q0 S180
M201 X1000 Y1000 Z200 E5000 ; sets maximum accelerations, mm/sec^2
M203 X200 Y200 Z12 E120 ; sets maximum feedrates, mm/sec
M204 P1250 R1250 T1250 ; sets acceleration (P, T) and retract acceleration (R), mm/sec^2
M205 X8.00 Y8.00 Z0.40 E4.50 ; sets the jerk limits, mm/sec
M205 S0 T0 ; sets the minimum extruding and travel feed rate, mm/sec
M107
;TYPE:Custom
M862.3 P "MK3S" ; printer model check
M862.1 P0.4 ; nozzle diameter check
M115 U3.10.0 ; tell printer latest fw version
G90 ; use absolute coordinates
M83 ; extruder relative mode
M104 S215 ; set extruder temp
M140 S60 ; set bed temp
M190 S60 ; wait for bed temp
M109 S215 ; wait for extruder temp
G28 W ; home all without mesh bed level
G80 ; mesh bed leveling
G1 Y-3.0 F1000.0 ; go outside print area
G92 E0.0
G1 X60.0 E9.0 F1000.0 ; intro line
G1 X100.0 E12.5 F1000.0 ; intro line
G92 E0.0
M221 S95

; Don't change E values below. Excessive value can damage the printer.
M907 E430 ; set extruder motor current
G21 ; set units to millimeters
G90 ; use absolute coordinates
M83 ; use relative distances for extrusion
M900 K0.05 ; Filament gcode LA 1.5
M900 K30 ; Filament gcode LA 1.0
;LAYER_CHANGE
;Z:0.2
;HEIGHT:0.2
;BEFORE_LAYER_CHANGE
G92 E0.0
;0.2


G1 E-0.80000 F2100.000
G1 Z0.400 F10800.000
;AFTER_LAYER_CHANGE
;0.2
G1 X76.580 Y65.049
G1 Z0.200
G1 E0.80000 F2100.000
M204 S1000
;TYPE:Skirt
;WIDTH:0.42
G1 F1200.000
G1 X77.346 Y64.546 E0.02872
G1 X78.246 Y64.371 E0.02877
G1 X171.777 Y64.541 E2.93260
G1 X172.575 Y64.686 E0.02543
G1 X173.278 Y65.090 E0.02543
G1 X173.637 Y65.462 E0.01621
G1 X173.908 Y65.903 E0.01621
G1 X174.077 Y66.396 E0.01633
G1 X174.135 Y66.909 E0.01621
G1 X174.135 Y142.249 E2.36221
M73 P0 R178
G1 X173.990 Y143.047 E0.02543
G1 X173.585 Y143.750 E0.02543
G1 X173.210 Y144.111 E0.01633
G1 X172.769 Y144.381 E0.01621
G1 X172.280 Y144.549 E0.01621
G1 X171.763 Y144.607 E0.01633
G1 X78.223 Y144.437 E2.93289
G1 X77.425 Y144.292 E0.02543
G1 X76.722 Y143.887 E0.02543
G1 X76.365 Y143.518 E0.01609
G1 X76.096 Y143.081 E0.01609
G1 X75.926 Y142.597 E0.01609
G1 X75.865 Y142.087 E0.01609
G1 X75.866 Y66.702 E2.36364
G1 X76.059 Y65.807 E0.02872
G1 X76.546 Y65.098 E0.02696
; printing object CKp2--inner.stl_1 id:0 copy 0
;WIPE_START
G1 F8640.000
G1 X77.346 Y64.546 E-0.22439
G1 X78.246 Y64.371 E-0.21187
G1 X79.649 Y64.373 E-0.32374
;WIPE_END
G1 E-0.04000 F2100.000
G1 Z0.600 F10800.000
G1 X78.242 Y66.748
G1 Z0.200
G1 E0.80000 F2100.000
;TYPE:Support material
G1 F1200.000
G1 X78.242 Y142.060 E2.36135
G1 X78.996 Y142.060 E0.02365
G1 X78.996 Y66.918 E2.35603
G1 X79.750 Y66.918 E0.02365
G1 X79.750 Y142.060 E2.35603
G1 X80.505 Y142.060 E0.02365
G1 X80.505 Y66.918 E2.35603
G1 X81.259 Y66.918 E0.02365
G1 X81.259 Y69.541 E0.08224
G1 X82.013 Y69.541 E0.02365
G1 X82.013 Y66.918 E0.08224
G1 X82.767 Y66.918 E0.02365
G1 X82.767 Y69.541 E0.08224
G1 X83.521 Y69.541 E0.02365
G1 X83.521 Y66.918 E0.08224
G1 X84.275 Y66.918 E0.02365
G1 X84.275 Y69.541 E0.08224
G1 X85.030 Y69.541 E0.02365
G1 X85.030 Y66.918 E0.08224
G1 X85.784 Y66.918 E0.02365
G1 X85.784 Y69.541 E0.08224
G1 X86.538 Y69.541 E0.02365
G1 X86.538 Y66.918 E0.08224
G1 X87.292 Y66.918 E0.02365
G1 X87.292 Y69.541 E0.08224
G1 X88.046 Y69.541 E0.02365
G1 X88.046 Y66.918 E0.08224
M73 Q0 S179
G1 X88.800 Y66.918 E0.02365
G1 X88.800 Y69.541 E0.08224
G1 X89.555 Y69.541 E0.02365
G1 X89.555 Y66.918 E0.08224
G1 X90.309 Y66.918 E0.02365
G1 X90.309 Y69.541 E0.08224
G1 X91.063 Y69.541 E0.02365
G1 X91.063 Y66.918 E0.08224
G1 X91.817 Y66.918 E0.02365
G1 X91.817 Y69.541 E0.08224
G1 X92.571 Y69.541 E0.02365
G1 X92.571 Y66.918 E0.08224
G1 X93.325 Y66.918 E0.02365
G1 X93.325 Y69.541 E0.08224
G1 X94.079 Y69.541 E0.02365
G1 X94.079 Y66.918 E0.08224
G1 X94.834 Y66.918 E0.02365
G1 X94.834 Y69.541 E0.08224
G1 X95.588 Y69.541 E0.02365
G1 X95.588 Y66.918 E0.08224
G1 X96.342 Y66.918 E0.02365
G1 X96.342 Y69.541 E0.08224
G1 X97.096 Y69.541 E0.02365
G1 X97.096 Y66.918 E0.08224
G1 X97.850 Y66.918 E0.02365
G1 X97.850 Y69.541 E0.08224
G1 X98.604 Y69.541 E0.02365
G1 X98.604 Y66.918 E0.08224
G1 X99.359 Y66.918 E0.02365
G1 X99.359 Y69.541 E0.08224
G1 X100.113 Y69.541 E0.02365
G1 X100.113 Y66.918 E0.08224
G1 X100.867 Y66.918 E0.02365
G1 X100.867 Y69.541 E0.08224
G1 X101.621 Y69.541 E0.02365
G1 X101.621 Y66.918 E0.08224
G1 X102.375 Y66.918 E0.02365
G1 X102.375 Y69.541 E0.08224
G1 X103.129 Y69.541 E0.02365
G1 X103.129 Y66.918 E0.08224
G1 X103.884 Y66.918 E0.02365
G1 X103.884 Y69.541 E0.08224
G1 X104.638 Y69.541 E0.02365
G1 X104.638 Y66.918 E0.08224
G1 X105.392 Y66.918 E0.02365
G1 X105.392 Y69.541 E0.08224
G1 X106.146 Y69.541 E0.02365
G1 X106.146 Y66.918 E0.08224
G1 X106.900 Y66.918 E0.02365
G1 X106.900 Y69.541 E0.08224
G1 X107.654 Y69.541 E0.02365
G1 X107.654 Y66.918 E0.08224
G1 X108.409 Y66.918 E0.02365
G1 X108.409 Y69.541 E0.08224
G1 X109.163 Y69.541 E0.02365
G1 X109.163 Y66.918 E0.08224
G1 X109.917 Y66.918 E0.02365
G1 X109.917 Y69.541 E0.08224
G1 X110.671 Y69.541 E0.02365
G1 X110.671 Y66.918 E0.08224
G1 X111.425 Y66.918 E0.02365
G1 X111.425 Y69.541 E0.08224
G1 X112.179 Y69.541 E0.02365
G1 X112.179 Y66.918 E0.08224
G1 X112.933 Y66.918 E0.02365
G1 X112.933 Y69.541 E0.08224
G1 X113.688 Y69.541 E0.02365
G1 X113.688 Y66.918 E0.08224
G1 X114.442 Y66.918 E0.02365
G1 X114.442 Y69.541 E0.08224
G1 X115.196 Y69.541 E0.02365
G1 X115.196 Y66.918 E0.08224
G1 X115.950 Y66.918 E0.02365
G1 X115.950 Y69.541 E0.08224
G1 X116.704 Y69.541 E0.02365
G1 X116.704 Y66.918 E0.08224
G1 X117.458 Y66.918 E0.02365
G1 X117.458 Y69.541 E0.08224
G1 X118.213 Y69.541 E0.02365
G1 X118.213 Y66.918 E0.08224
G1 X118.967 Y66.918 E0.02365
G1 X118.967 Y69.541 E0.08224
G1 X119.721 Y69.541 E0.02365
G1 X119.721 Y66.918 E0.08224
G1 X120.475 Y66.918 E0.02365
G1 X120.475 Y69.541 E0.08224
G1 X121.229 Y69.541 E0.02365
G1 X121.229 Y66.918 E0.08224
G1 X121.983 Y66.918 E0.02365
G1 X121.983 Y69.541 E0.08224
G1 X122.738 Y69.541 E0.02365
G1 X122.738 Y66.918 E0.08224
G1 X123.492 Y66.918 E0.02365
G1 X123.492 Y69.541 E0.08224
G1 X124.246 Y69.541 E0.02365
G1 X124.246 Y66.918 E0.08224
G1 X125.000 Y66.918 E0.02365
G1 X125.000 Y69.541 E0.08224
G1 X125.754 Y69.541 E0.02365
G1 X125.754 Y66.918 E0.08224
G1 X126.508 Y66.918 E0.02365
G1 X126.508 Y69.541 E0.08224
G1 X127.262 Y69.541 E0.02365
G1 X127.262 Y66.918 E0.08224
G1 X128.017 Y66.918 E0.02365
G1 X128.017 Y69.541 E0.08224
G1 X128.771 Y69.541 E0.02365
G1 X128.771 Y66.918 E0.08224
G1 X129.525 Y66.918 E0.02365
G1 X129.525 Y69.541 E0.08224
G1 X130.279 Y69.541 E0.02365
G1 X130.279 Y66.918 E0.08224
G1 X131.033 Y66.918 E0.02365
G1 X131.033 Y69.541 E0.08224
G1 X131.787 Y69.541 E0.02365
G1 X131.787 Y66.918 E0.08224
G1 X132.542 Y66.918 E0.02365
G1 X132.542 Y69.541 E0.08224
G1 X133.296 Y69.541 E0.02365
G1 X133.296 Y66.918 E0.08224
G1 X134.050 Y66.918 E0.02365
G1 X134.050 Y69.541 E0.08224
G1 X134.804 Y69.541 E0.02365
G1 X134.804 Y66.918 E0.08224
G1 X135.558 Y66.918 E0.02365
G1 X135.558 Y69.541 E0.08224
G1 X136.312 Y69.541 E0.02365
G1 X136.312 Y66.918 E0.08224
G1 X137.067 Y66.918 E0.02365
G1 X137.067 Y69.541 E0.08224
G1 X137.821 Y69.541 E0.02365
G1 X137.821 Y66.918 E0.08224
G1 X138.575 Y66.918 E0.02365
G1 X138.575 Y69.541 E0.08224
G1 X139.329 Y69.541 E0.02365
G1 X139.329 Y66.918 E0.08224
G1 X140.083 Y66.918 E0.02365
G1 X140.083 Y69.541 E0.08224
G1 X140.837 Y69.541 E0.02365
G1 X140.837 Y66.918 E0.08224
G1 X141.592 Y66.918 E0.02365
G1 X141.592 Y69.541 E0.08224
G1 X142.346 Y69.541 E0.02365
G1 X142.346 Y66.918 E0.08224
G1 X143.100 Y66.918 E0.02365
G1 X143.100 Y69.541 E0.08224
G1 X143.854 Y69.541 E0.02365
G1 X143.854 Y66.918 E0.08224
G1 X144.608 Y66.918 E0.02365
G1 X144.608 Y69.541 E0.08224
G1 X145.362 Y69.541 E0.02365
G1 X145.362 Y66.918 E0.08224
G1 X146.116 Y66.918 E0.02365
G1 X146.116 Y69.541 E0.08224
G1 X146.871 Y69.541 E0.02365
G1 X146.871 Y66.918 E0.08224
G1 X147.625 Y66.918 E0.02365
G1 X147.625 Y69.541 E0.08224
G1 X148.379 Y69.541 E0.02365
G1 X148.379 Y66.918 E0.08224
G1 X149.133 Y66.918 E0.02365
G1 X149.133 Y69.541 E0.08224
G1 X149.887 Y69.541 E0.02365
G1 X149.887 Y66.918 E0.08224
G1 X150.641 Y66.918 E0.02365
G1 X150.641 Y69.541 E0.08224
G1 X151.396 Y69.541 E0.02365
G1 X151.396 Y66.918 E0.08224
G1 X152.150 Y66.918 E0.02365
G1 X152.150 Y69.541 E0.08224
G1 X152.904 Y69.541 E0.02365
G1 X152.904 Y66.918 E0.08224
G1 X153.658 Y66.918 E0.02365
G1 X153.658 Y69.541 E0.08224
G1 X154.412 Y69.541 E0.02365
G1 X154.412 Y66.918 E0.08224
G1 X155.166 Y66.918 E0.02365
G1 X155.166 Y69.541 E0.08224
G1 X155.921 Y69.541 E0.02365
G1 X155.921 Y66.918 E0.08224
G1 X156.675 Y66.918 E0.02365
G1 X156.675 Y69.541 E0.08224
G1 X157.429 Y69.541 E0.02365
G1 X157.429 Y66.918 E0.08224
G1 X158.183 Y66.918 E0.02365
G1 X158.183 Y69.541 E0.08224
G1 X158.937 Y69.541 E0.02365
G1 X158.937 Y66.918 E0.08224
G1 X159.691 Y66.918 E0.02365
G1 X159.691 Y69.541 E0.08224
G1 X160.445 Y69.541 E0.02365
G1 X160.445 Y66.918 E0.08224
G1 X161.200 Y66.918 E0.02365
G1 X161.200 Y69.541 E0.08224
G1 X161.954 Y69.541 E0.02365
G1 X161.954 Y66.918 E0.08224
G1 X162.708 Y66.918 E0.02365
G1 X162.708 Y69.541 E0.08224
G1 X163.462 Y69.541 E0.02365
G1 X163.462 Y66.918 E0.08224
G1 X164.216 Y66.918 E0.02365
G1 X164.216 Y69.541 E0.08224
G1 X164.970 Y69.541 E0.02365
G1 X164.970 Y66.918 E0.08224
G1 X165.725 Y66.918 E0.02365
G1 X165.725 Y69.541 E0.08224
G1 X166.479 Y69.541 E0.02365
G1 X166.479 Y66.918 E0.08224
G1 X167.233 Y66.918 E0.02365
G1 X167.233 Y69.541 E0.08224
G1 X167.987 Y69.541 E0.02365
G1 X167.987 Y66.918 E0.08224
G1 X168.741 Y66.918 E0.02365
G1 X168.741 Y69.541 E0.08224
G1 X169.177 Y69.541 E0.01365
G1 X169.177 Y72.532 E0.09379
G1 X168.741 Y72.532 E0.01365
G1 X168.741 Y136.446 E2.00398
G1 X167.987 Y136.446 E0.02365
G1 X167.987 Y72.532 E2.00398
G1 X167.233 Y72.532 E0.02365
G1 X167.233 Y136.446 E2.00398
G1 X166.479 Y136.446 E0.02365
G1 X166.479 Y72.532 E2.00398
M73 P0 R177
G1 X165.725 Y72.532 E0.02365
G1 X165.725 Y136.446 E2.00398
G1 X164.970 Y136.446 E0.02365
G1 X164.970 Y72.532 E2.00398
G1 X164.216 Y72.532 E0.02365
G1 X164.216 Y136.446 E2.00398
G1 X163.462 Y136.446 E0.02365
G1 X163.462 Y72.532 E2.00398
G1 X162.708 Y72.532 E0.02365
G1 X162.708 Y136.446 E2.00398
G1 X161.954 Y136.446 E0.02365
G1 X161.954 Y72.532 E2.00398
G1 X161.200 Y72.532 E0.02365
G1 X161.200 Y136.446 E2.00398
G1 X160.445 Y136.446 E0.02365
G1 X160.445 Y72.532 E2.00398
G1 X159.691 Y72.532 E0.02365
G1 X159.691 Y136.446 E2.00398
M73 Q0 S178
G1 X158.937 Y136.446 E0.02365
G1 X158.937 Y72.532 E2.00398
M73 P1 R177
G1 X158.183 Y72.532 E0.02365
G1 X158.183 Y136.446 E2.00398
M73 Q1 S178
G1 X157.429 Y136.446 E0.02365
G1 X157.429 Y72.532 E2.00398
G1 X156.675 Y72.532 E0.02365
G1 X156.675 Y136.446 E2.00398
G1 X155.921 Y136.446 E0.02365
G1 X155.921 Y72.532 E2.00398
G1 X155.166 Y72.532 E0.02365
G1 X155.166 Y136.446 E2.00398
G1 X154.412 Y136.446 E0.02365
G1 X154.412 Y72.532 E2.00398
G1 X153.658 Y72.532 E0.02365
G1 X153.658 Y136.446 E2.00398
G1 X152.904 Y136.446 E0.02365
G1 X152.904 Y72.532 E2.00398
M73 P1 R176
G1 X152.150 Y72.532 E0.02365
G1 X152.150 Y136.446 E2.00398
G1 X151.396 Y136.446 E0.02365
G1 X151.396 Y72.532 E2.00398
G1 X150.641 Y72.532 E0.02365
G1 X150.641 Y136.446 E2.00398
G1 X149.887 Y136.446 E0.02365
G1 X149.887 Y72.532 E2.00398
G1 X149.133 Y72.532 E0.02365
G1 X149.133 Y136.446 E2.00398
G1 X148.379 Y136.446 E0.02365
G1 X148.379 Y72.532 E2.00398
G1 X147.625 Y72.532 E0.02365
G1 X147.625 Y136.446 E2.00398
G1 X146.871 Y136.446 E0.02365
G1 X146.871 Y72.532 E2.00398
G1 X146.116 Y72.532 E0.02365
G1 X146.116 Y136.446 E2.00398
M73 Q1 S177
G1 X145.362 Y136.446 E0.02365
G1 X145.362 Y72.532 E2.00398
G1 X144.608 Y72.532 E0.02365
G1 X144.608 Y136.446 E2.00398
G1 X143.854 Y136.446 E0.02365
G1 X143.854 Y72.532 E2.00398
G1 X143.100 Y72.532 E0.02365
G1 X143.100 Y136.446 E2.00398
G1 X142.346 Y136.446 E0.02365
G1 X142.346 Y72.532 E2.00398
G1 X141.592 Y72.532 E0.02365
G1 X141.591 Y136.446 E2.00398
G1 X141.492 Y136.446 E0.00313
G1 X141.492 Y134.139 E0.07234
G1 X140.837 Y134.139 E0.02051
G1 X140.837 Y72.532 E1.93164
G1 X140.083 Y72.532 E0.02365
G1 X140.083 Y134.139 E1.93164
G1 X139.329 Y134.139 E0.02365
G1 X139.329 Y72.532 E1.93164
G1 X139.185 Y72.532 E0.00453
G1 X139.185 Y74.839 E0.07234
G1 X138.575 Y74.839 E0.01912
G1 X138.575 Y134.139 E1.85931
M73 P1 R175
G1 X137.821 Y134.139 E0.02365
G1 X137.821 Y74.839 E1.85931
G1 X137.067 Y74.839 E0.02365
G1 X137.067 Y134.139 E1.85931
G1 X136.312 Y134.139 E0.02365
G1 X136.312 Y74.839 E1.85931
G1 X135.558 Y74.839 E0.02365
G1 X135.558 Y134.139 E1.85931
G1 X134.804 Y134.139 E0.02365
G1 X134.804 Y74.839 E1.85931
G1 X134.050 Y74.839 E0.02365
G1 X134.050 Y134.139 E1.85931
G1 X133.296 Y134.139 E0.02365
G1 X133.296 Y74.839 E1.85931
M73 P2 R175
G1 X132.542 Y74.839 E0.02365
G1 X132.542 Y134.139 E1.85931
M73 Q2 S177
G1 X131.787 Y134.139 E0.02365
G1 X131.787 Y74.839 E1.85931
G1 X131.579 Y74.839 E0.00653
G1 X131.579 Y72.532 E0.07234
M73 Q2 S176
G1 X131.033 Y72.532 E0.01711
G1 X131.033 Y136.446 E2.00398
G1 X130.279 Y136.446 E0.02365
G1 X130.279 Y72.532 E2.00398
G1 X129.525 Y72.532 E0.02365
G1 X129.525 Y136.446 E2.00398
G1 X128.771 Y136.446 E0.02365
G1 X128.771 Y72.532 E2.00398
G1 X128.017 Y72.532 E0.02365
G1 X128.017 Y136.446 E2.00398
G1 X127.262 Y136.446 E0.02365
G1 X127.262 Y72.532 E2.00398
G1 X126.508 Y72.532 E0.02365
G1 X126.508 Y136.446 E2.00398
G1 X125.754 Y136.446 E0.02365
G1 X125.754 Y72.532 E2.00398
G1 X125.000 Y72.532 E0.02365
G1 X125.000 Y136.446 E2.00398
G1 X124.246 Y136.446 E0.02365
G1 X124.246 Y72.532 E2.00398
M73 P2 R174
G1 X123.492 Y72.532 E0.02365
G1 X123.492 Y136.446 E2.00398
G1 X122.738 Y136.446 E0.02365
G1 X122.738 Y72.532 E2.00398
G1 X121.983 Y72.532 E0.02365
G1 X121.983 Y136.446 E2.00398
G1 X121.229 Y136.446 E0.02365
G1 X121.229 Y72.532 E2.00398
G1 X120.475 Y72.532 E0.02365
G1 X120.475 Y136.446 E2.00398
G1 X119.721 Y136.446 E0.02365
G1 X119.721 Y72.532 E2.00398
G1 X118.967 Y72.532 E0.02365
G1 X118.967 Y136.446 E2.00398
G1 X118.213 Y136.446 E0.02365
G1 X118.213 Y72.532 E2.00398
G1 X117.458 Y72.532 E0.02365
G1 X117.458 Y136.446 E2.00398
M73 Q2 S175
G1 X116.704 Y136.446 E0.02365
G1 X116.704 Y72.532 E2.00398
G1 X115.950 Y72.532 E0.02365
G1 X115.950 Y136.446 E2.00398
G1 X115.196 Y136.446 E0.02365
G1 X115.196 Y72.532 E2.00398
G1 X114.442 Y72.532 E0.02365
G1 X114.442 Y136.446 E2.00398
G1 X113.688 Y136.446 E0.02365
G1 X113.688 Y72.532 E2.00398
G1 X112.933 Y72.532 E0.02365
G1 X112.933 Y136.446 E2.00398
G1 X112.179 Y136.446 E0.02365
G1 X112.179 Y72.532 E2.00398
G1 X111.425 Y72.532 E0.02365
G1 X111.425 Y136.446 E2.00398
G1 X110.671 Y136.446 E0.02365
G1 X110.671 Y72.532 E2.00398
M73 P2 R173
G1 X109.917 Y72.532 E0.02365
G1 X109.917 Y136.446 E2.00398
G1 X109.163 Y136.446 E0.02365
G1 X109.163 Y72.532 E2.00398
G1 X108.409 Y72.532 E0.02365
G1 X108.408 Y136.446 E2.00398
M73 P3 R173
G1 X107.654 Y136.446 E0.02365
G1 X107.654 Y72.532 E2.00398
M73 Q3 S175
G1 X106.900 Y72.532 E0.02365
G1 X106.900 Y136.446 E2.00398
G1 X106.146 Y136.446 E0.02365
G1 X106.146 Y72.532 E2.00398
G1 X105.392 Y72.532 E0.02365
G1 X105.392 Y136.446 E2.00398
G1 X104.638 Y136.446 E0.02365
G1 X104.638 Y72.532 E2.00398
G1 X103.884 Y72.532 E0.02365
G1 X103.884 Y136.446 E2.00398
M73 Q3 S174
G1 X103.129 Y136.446 E0.02365
G1 X103.129 Y72.532 E2.00398
G1 X102.375 Y72.532 E0.02365
G1 X102.375 Y136.446 E2.00398
G1 X101.621 Y136.446 E0.02365
G1 X101.621 Y72.532 E2.00398
G1 X100.867 Y72.532 E0.02365
G1 X100.867 Y136.446 E2.00398
G1 X100.113 Y136.446 E0.02365
G1 X100.113 Y72.532 E2.00398
G1 X99.359 Y72.532 E0.02365
G1 X99.359 Y136.446 E2.00398
G1 X98.604 Y136.446 E0.02365
G1 X98.604 Y72.532 E2.00398
G1 X97.850 Y72.532 E0.02365
G1 X97.850 Y136.446 E2.00398
G1 X97.096 Y136.446 E0.02365
G1 X97.096 Y72.532 E2.00398
G1 X96.342 Y72.532 E0.02365
G1 X96.342 Y136.446 E2.00398
M73 P3 R172
G1 X95.588 Y136.446 E0.02365
G1 X95.588 Y72.532 E2.00398
